image/02/Associates/Aptos.svg

<svg xmlns="http://www.w3.org/2000/svg" fill="none" viewBox="0 0 123 48" height="48" width="123">
<path fill="black" d="M88.7367 15.8449C88.9545 15.8449 89.1618 15.7564 89.312 15.5992L90.4638 14.3985C90.6071 14.2483 90.8062 14.1633 91.0135 14.1633H91.0612C91.279 14.1633 91.4875 14.2564 91.6319 14.4206L92.602 15.5165C92.7872 15.725 93.0515 15.8449 93.331 15.8449H95.9316C93.4545 12.5526 89.5147 10.4226 85.0776 10.4226C80.6405 10.4226 76.7007 12.5526 74.2236 15.8449H88.7367ZM90.1086 19.5064H92.5019V19.5076H97.8892C98.2619 20.5708 98.5053 21.6935 98.602 22.8593H88.5096C88.2301 22.8593 87.9658 22.7393 87.7806 22.5309L86.8105 21.435C86.6661 21.2708 86.4576 21.1776 86.2399 21.1776H86.1921C85.9848 21.1776 85.7857 21.2626 85.6424 21.4128L84.4906 22.6135C84.3404 22.7708 84.1331 22.8593 83.9153 22.8593H71.5509C71.6475 21.6935 71.8909 20.5708 72.2636 19.5076H85.3606C85.7717 19.5076 86.163 19.3306 86.4355 19.0231L87.2682 18.0821C87.4126 17.9179 87.6211 17.8247 87.8388 17.8247C88.0566 17.8247 88.2651 17.9191 88.4095 18.0821L89.3796 19.178C89.5648 19.3865 89.8303 19.5064 90.1086 19.5064ZM79.6098 29.6581C79.4596 29.8154 79.2523 29.9039 79.0345 29.9039V29.905H72.8494C72.337 28.8464 71.962 27.7109 71.7384 26.5207H80.5415C80.9526 26.5207 81.3439 26.3437 81.6164 26.0363L82.4491 25.0953C82.5935 24.9311 82.802 24.8379 83.0198 24.8379C83.2375 24.8379 83.446 24.9322 83.5904 25.0953L84.5605 26.1912C84.7457 26.3996 85.0112 26.5196 85.2896 26.5196H98.4168C98.1932 27.7086 97.8182 28.8453 97.3058 29.9039H83.6288C83.3493 29.9039 83.085 29.7839 82.8998 29.5755L81.9297 28.4796C81.7853 28.3154 81.5768 28.2222 81.3591 28.2222H81.3113C81.104 28.2222 80.9049 28.3072 80.7616 28.4574L79.6098 29.6581ZM79.9557 33.2591H83.5124V33.2602H95.0011C92.5228 35.9155 88.9953 37.5774 85.0764 37.5774C81.1576 37.5774 77.63 35.9155 75.1518 33.2602H75.2077C75.6188 33.2602 76.0101 33.0832 76.2826 32.7757L77.1153 31.8348C77.2597 31.6706 77.4682 31.5774 77.6859 31.5774C77.9037 31.5774 78.1122 31.6717 78.2566 31.8348L79.2267 32.9306C79.4119 33.1391 79.6774 33.2591 79.9557 33.2591ZM25.0593 36.6993L22.2969 29.99H9.95571L7.19331 36.6993H4L16.1082 11.2995L28.2526 36.6993H25.0593ZM10.9969 27.4431H21.2208L16.0919 16.6217L10.9969 27.4431ZM32.6629 11.2995V36.6993H35.6407V25.8651H39.6947C45.0763 25.8651 48.1613 23.3892 48.1613 18.6178C48.1613 13.8465 45.2556 11.2995 39.7308 11.2995H32.6629ZM39.0134 23.2098H35.6407V13.9536H39.0134C43.2467 13.9536 45.1485 15.4245 45.1485 18.6178C45.1485 21.8111 43.2828 23.2098 39.0134 23.2098ZM58.9768 14.0258H50.2237V11.2995H70.7089V14.0258H61.9547V36.6993H58.9768V14.0258ZM105.359 30.3313L102.794 32.0712L102.793 32.07C104.838 35.8724 107.565 37.3794 111.511 37.3794C116.212 37.3794 119.512 34.115 119.512 30.2765C119.512 26.7606 118.076 24.5724 112.229 21.9171C107.744 19.8721 106.704 18.7599 106.704 16.8232C106.704 14.7432 108.318 13.2002 111.081 13.2002C113.341 13.2002 114.669 14.1691 115.745 15.8554L116.355 15.9987L118.436 14.5639C117.072 12.1241 114.669 10.6171 111.153 10.6171C106.381 10.6171 103.619 13.3795 103.619 16.8954C103.619 20.1236 105.414 22.3841 110.687 24.5724C115.279 26.4742 116.427 28.0161 116.427 30.3126C116.427 32.7525 114.382 34.7614 111.477 34.7614C108.857 34.7614 107.135 33.6131 105.557 30.7435L105.359 30.3313Z" clip-rule="evenodd" fill-rule="evenodd"></path>
</svg>

<?xml version="1.0" encoding="utf-8"?>
<!-- Generator: Adobe Illustrator 23.0.6, SVG Export Plug-In . SVG Version: 6.00 Build 0)  -->
<svg version="1.1" id="Layer_1" xmlns="http://www.w3.org/2000/svg" xmlns:xlink="http://www.w3.org/1999/xlink" x="0px" y="0px"
	 viewBox="0 0 123 48" style="enable-background:new 0 0 123 48;" xml:space="preserve">
<style type="text/css">
	.st0{fill-rule:evenodd;clip-rule:evenodd;fill:#FFFFFF;}
</style>
<path class="st0" d="M88.7,15.8c0.2,0,0.4-0.1,0.6-0.2l1.2-1.2c0.1-0.2,0.3-0.2,0.5-0.2h0c0.2,0,0.4,0.1,0.6,0.3l1,1.1
	c0.2,0.2,0.4,0.3,0.7,0.3h2.6c-2.5-3.3-6.4-5.4-10.9-5.4c-4.4,0-8.4,2.1-10.9,5.4H88.7z M90.1,19.5h2.4v0h5.4
	c0.4,1.1,0.6,2.2,0.7,3.4H88.5c-0.3,0-0.5-0.1-0.7-0.3l-1-1.1c-0.1-0.2-0.4-0.3-0.6-0.3h0c-0.2,0-0.4,0.1-0.5,0.2l-1.2,1.2
	c-0.2,0.2-0.4,0.2-0.6,0.2H71.6c0.1-1.2,0.3-2.3,0.7-3.4h13.1c0.4,0,0.8-0.2,1.1-0.5l0.8-0.9c0.1-0.2,0.4-0.3,0.6-0.3
	c0.2,0,0.4,0.1,0.6,0.3l1,1.1C89.6,19.4,89.8,19.5,90.1,19.5z M79.6,29.7c-0.2,0.2-0.4,0.2-0.6,0.2v0h-6.2c-0.5-1.1-0.9-2.2-1.1-3.4
	h8.8c0.4,0,0.8-0.2,1.1-0.5l0.8-0.9c0.1-0.2,0.4-0.3,0.6-0.3c0.2,0,0.4,0.1,0.6,0.3l1,1.1c0.2,0.2,0.5,0.3,0.7,0.3h13.1
	c-0.2,1.2-0.6,2.3-1.1,3.4H83.6c-0.3,0-0.5-0.1-0.7-0.3l-1-1.1c-0.1-0.2-0.4-0.3-0.6-0.3h0c-0.2,0-0.4,0.1-0.5,0.2L79.6,29.7z
	 M80,33.3h3.6v0H95c-2.5,2.7-6,4.3-9.9,4.3c-3.9,0-7.4-1.7-9.9-4.3h0.1c0.4,0,0.8-0.2,1.1-0.5l0.8-0.9c0.1-0.2,0.4-0.3,0.6-0.3
	c0.2,0,0.4,0.1,0.6,0.3l1,1.1C79.4,33.1,79.7,33.3,80,33.3z M25.1,36.7L22.3,30H10l-2.8,6.7H4l12.1-25.4l12.1,25.4H25.1z M11,27.4
	h10.2l-5.1-10.8L11,27.4z M32.7,11.3v25.4h3V25.9h4.1c5.4,0,8.5-2.5,8.5-7.2c0-4.8-2.9-7.3-8.4-7.3H32.7z M39,23.2h-3.4V14H39
	c4.2,0,6.1,1.5,6.1,4.7S43.3,23.2,39,23.2z M59,14h-8.8v-2.7h20.5V14H62v22.7h-3V14z M105.4,30.3l-2.6,1.7l0,0
	c2,3.8,4.8,5.3,8.7,5.3c4.7,0,8-3.3,8-7.1c0-3.5-1.4-5.7-7.3-8.4c-4.5-2-5.5-3.2-5.5-5.1c0-2.1,1.6-3.6,4.4-3.6c2.3,0,3.6,1,4.7,2.7
	l0.6,0.1l2.1-1.4c-1.4-2.4-3.8-3.9-7.3-3.9c-4.8,0-7.5,2.8-7.5,6.3c0,3.2,1.8,5.5,7.1,7.7c4.6,1.9,5.7,3.4,5.7,5.7
	c0,2.4-2,4.4-5,4.4c-2.6,0-4.3-1.1-5.9-4L105.4,30.3z"/>
</svg>
